X:5
T:Geuen of The
R:reel
H:Also in G, Strey.
H:The & Hack tune Gire Gooney Comonsion "The Ba~bow


*****************************


15700 4 0.93144464 

<startoth
Z:Thohins Linste."Hed B, Rofked beather.
Z:id:hn-reel-1
M:C|
K:G
~G3B AFDD|B,EDE AFDE|A2Bd g2ed


*****************************


15800 4 1.2319095 

<starbothpphin
D:BdDF|GFGF GEE2:|
GdBG G2Bd|e2B2 BAFA|D2DF ABcE|
EDDE EFGA|BE~E2 BEDD|DcdA FGEG|FdAB/d/ g


*****************************


15900 4 0.61195177 

<starut@lapotion.
D:|3 B,~A, B,EE |2EFA BEFE | E2FE BEE2 | DEFD FABA | BEDE EFGA |
B2AG ADD2 :|2 BAGF GED


*****************************


16000 4 1.2792675 

<stareton assion 2 Stectret, #4341.
D:Bergie Greest version 2
D:Patrick def. #81.
D:Matt: Mauba the Moun 


*****************************


16100 4 1.1439466 

<starobhy
D:Stoel Blose, The
R:reel
Z:id:hn-reel-38
M:C|
K:D
FD E2FA|EFBD FE~E2|1 BDEB AFEF|AFGB AGEF|Acd


*****************************


16200 4 0.5641892 

<starattoon Letho:cleelersty
Z:id:hn-reel-41
M:C|
K:D
A2 (3Bcd g2ec|1 dcBc BAcB|ADED ~D3.A:|2 dfed dfec|d


*****************************


16300 4 1.0092603 

<starthen
cB~B2 ABcd|FA (3Bcd e^c|AdcA Gdd^c|dddc Addc|
BG~G2 GBcd:|
A2dc dcBA|Bgbf gece|dBAe D2FD|E8AB|d


*****************************


16400 4 1.1816249 

<starthupton
Z:id:hn-polka-71
M:C|
K:Dmix
AFAB cBcB|~A2Ac AGEC|G2EG Acdf|gfec d2AG|
F2DF GFED|
~E3F GF~G2


*****************************


16500 4 1.1277043 

<startotlthes.
Z:id:hn-reel-67
M:C|
K:Gmer
EFDB c2AF|A2cd edcB|A2GE EDCE:|
dcAB ~e3d|(3cBA eA AdBd|fafd c


*****************************


16600 4 1.57093 

<startons:Tto://ountmenr onsey", #66
D:Pats assson Rcrady
Z:id:hn-reel-99
M:C|
K:Atore
A2FA|d2cA AFDE|D2 


*****************************


16700 4 0.43987143 

<startoollkest pove in Gladefdine (collta, #295, #667
D:Mackan (1689-1.Bfged:celec|1B2ng2 (3efeB|(3Bcd (3


*****************************


16800 4 1.1855977 

<startoth
S:Swevo Bro bateps #207.
D:Maraen Martin Pelso part
Z:id:hn-reel-73
M:C|
K:Ador
DEAF G2BA|G2EF 


*****************************


16900 4 1.4298669 

<startong avetion Alas (158-1998)
D:Stockton ais a also #356.
H:"The Hompory".s, Us Mhirche, The
R:reel
S


*****************************


17000 4 1.0162374 

<startohthpphor pars (5 fnet Patric (1888
Z:id:hn-reel-67
M:C|
K:Edor
(3Bcd e/d/BG|(3efg fa (3gfe d2|e2dc


*****************************


17100 4 1.4279599 

<start>
